Yaru++/apps/16/fcitx.svg

<svg height="16" width="16" xmlns="http://www.w3.org/2000/svg"><path d="m4.13086 1.0917922c-2.28115 0-4.13086 2.262006-4.13086 5.0527344 0 2.790564 1.84971 5.0527344 4.13086 5.0527344.12718 0 .252723-.0077.376953-.02148l2.880859 3.056641c.16837.178542.388825.267578.609375.267578.22072 0 .440835-.08903.609375-.267578l3.015625-3.199219c.2135-.226298.300555-.554587.228515-.865235-.007-.03052-.01619-.05837-.02539-.08594.0606.0025.120431.0078.181641.0078 2.20521 0 3.992188-1.6113604 3.992188-3.5976574 0-1.986298-1.786978-3.5957029-3.992188-3.5957029-1.771319 0-3.272091 1.0386955-3.794921 2.4765625-.30327-2.424615-2.015651-4.28125-4.082031-4.28125zm2.654297 3.1347656a1.340673 1.9663206 0 0 1 1.339843 1.9667968 1.340673 1.9663206 0 0 1 -1.339843 1.964844 1.340673 1.9663206 0 0 1 -1.341797-1.964844 1.340673 1.9663206 0 0 1 1.341797-1.9667968zm2.4980463.7460938c.5655 0 1.0253907.668408 1.0253907 1.490234 0 .821989-.4598907 1.490235-1.0253907 1.490235-.5654893 0-1.0253903-.668246-1.0253903-1.490235 0-.821826.459901-1.490234 1.0253903-1.490234zm-1.1464843 2.404297c.15967.568944.470195 1.083115.890625 1.507812-.3392-.04923-.689107-.08203-1.029297-.08203-.12062 0-.241681.0062-.363281.01367.22433-.439466.396103-.923186.501953-1.439453z" fill="#808080"/></svg>

<?xml version="1.0" encoding="UTF-8" standalone="no"?>
<svg
   xmlns:dc="http://purl.org/dc/elements/1.1/"
   xmlns:cc="http://creativecommons.org/ns#"
   xmlns:rdf="http://www.w3.org/1999/02/22-rdf-syntax-ns#"
   xmlns:svg="http://www.w3.org/2000/svg"
   xmlns="http://www.w3.org/2000/svg"
   xmlns:sodipodi="http://sodipodi.sourceforge.net/DTD/sodipodi-0.dtd"
   xmlns:inkscape="http://www.inkscape.org/namespaces/inkscape"
   width="16"
   height="16"
   version="1.1"
   id="svg6"
   sodipodi:docname="fcitx-symbolic.svg"
   inkscape:version="0.92.4 (5da689c313, 2019-01-14)">
  <metadata
     id="metadata12">
    <rdf:RDF>
      <cc:Work
         rdf:about="">
        <dc:format>image/svg+xml</dc:format>
        <dc:type
           rdf:resource="http://purl.org/dc/dcmitype/StillImage" />
        <dc:title></dc:title>
      </cc:Work>
    </rdf:RDF>
  </metadata>
  <defs
     id="defs10">
    <clipPath
       clipPathUnits="userSpaceOnUse"
       id="clipPath606">
      <path
         d="m 1279.04,1574.14 c -13.44,0 -26.89,5.44 -37.15,16.32 v 0 l -175.54,186.2 -8.22,8.71 c -2.92,3.1 -5.45,6.51 -7.57,10.15 -0.02,0.05 -0.04,0.09 -0.06,0.12 0.02,0 0.05,0 0.07,0 -7.24,12.5 -9.69,27.67 -6.35,42.26 0,0.01 0,0.01 0.01,0.02 0.01,0.06 0.02,0.11 0.03,0.16 0.01,0.05 0.02,0.09 0.03,0.14 0,0 0.01,0.01 0.01,0.01 0.01,0.04 0.02,0.08 0.03,0.13 v 0 c 2.76,11.67 7.82,20.37 16.17,27.62 v 0 c 5.08,4.41 11.37,8.29 19.11,11.98 17.6,8.39 83.41,32.18 153.51,40.42 7.93,0.93 15.9,1.66 23.87,2.15 7.38,0.45 14.75,0.7 22.05,0.7 v 0 0 c 0.16,0 0.32,0 0.48,0 h 0.01 c 20.5,-0.03 41.56,-1.89 61.99,-4.84 13.18,-1.91 26.09,-4.28 38.42,-6.92 0.16,-0.03 0.32,-0.07 0.48,-0.1 0.03,-0.02 0.05,-0.04 0.08,-0.06 47.41,-10.2 86.18,-24.27 97.9,-31.31 v 0 c 0.02,-0.01 0.04,-0.03 0.07,-0.04 7.77,-4.69 14.23,-9.01 19.53,-13.69 0.03,0 0.06,-0.01 0.09,-0.01 0.05,-0.04 0.09,-0.08 0.13,-0.12 6.61,-5.87 11.31,-12.37 14.19,-21.03 0.51,-1.54 0.97,-3.15 1.36,-4.84 0.02,-0.06 0.03,-0.13 0.05,-0.19 1.02,-4.4 1.52,-8.85 1.52,-13.28 0.01,-14.61 -5.4,-28.85 -15.39,-39.43 L 1316.2,1590.46 c -10.27,-10.88 -23.71,-16.32 -37.16,-16.32"
         id="path604"
         inkscape:connector-curvature="0" />
    </clipPath>
  </defs>
  <sodipodi:namedview
     pagecolor="#ffffff"
     bordercolor="#666666"
     borderopacity="1"
     objecttolerance="10"
     gridtolerance="10"
     guidetolerance="10"
     inkscape:pageopacity="0"
     inkscape:pageshadow="2"
     inkscape:window-width="1920"
     inkscape:window-height="1016"
     id="namedview8"
     showgrid="false"
     inkscape:zoom="14.75"
     inkscape:cx="8"
     inkscape:cy="8"
     inkscape:window-x="0"
     inkscape:window-y="27"
     inkscape:window-maximized="1"
     inkscape:current-layer="svg6" />
  <path
     style="fill:#808080;fill-opacity:1;fill-rule:nonzero;stroke:none;stroke-width:0.01641026"
     d="M 4.13086,1.0917922 C 1.84971,1.0917922 0,3.3537982 0,6.1445266 c 0,2.790564 1.84971,5.0527344 4.13086,5.0527344 0.12718,0 0.252723,-0.0077 0.376953,-0.02148 l 2.880859,3.056641 C 7.557042,14.410964 7.777497,14.5 7.998047,14.5 c 0.22072,0 0.440835,-0.08903 0.609375,-0.267578 l 3.015625,-3.199219 c 0.2135,-0.226298 0.300555,-0.554587 0.228515,-0.865235 -0.007,-0.03052 -0.01619,-0.05837 -0.02539,-0.08594 0.0606,0.0025 0.120431,0.0078 0.181641,0.0078 2.20521,0 3.992188,-1.6113604 3.992188,-3.5976574 0,-1.986298 -1.786978,-3.5957029 -3.992188,-3.5957029 -1.771319,0 -3.272091,1.0386955 -3.794921,2.4765625 -0.30327,-2.424615 -2.015651,-4.28125 -4.082031,-4.28125 z M 6.785157,4.2265578 A 1.340673,1.9663206 0 0 1 8.125,6.1933546 1.340673,1.9663206 0 0 1 6.785157,8.1581986 1.340673,1.9663206 0 0 1 5.44336,6.1933546 1.340673,1.9663206 0 0 1 6.785157,4.2265578 Z m 2.4980463,0.7460938 c 0.5655,0 1.0253907,0.668408 1.0253907,1.490234 0,0.821989 -0.4598907,1.490235 -1.0253907,1.490235 -0.5654893,0 -1.0253903,-0.668246 -1.0253903,-1.490235 0,-0.821826 0.459901,-1.490234 1.0253903,-1.490234 z M 8.136719,7.3769486 c 0.15967,0.568944 0.470195,1.083115 0.890625,1.507812 -0.3392,-0.04923 -0.689107,-0.08203 -1.029297,-0.08203 -0.12062,0 -0.241681,0.0062 -0.363281,0.01367 0.22433,-0.439466 0.396103,-0.923186 0.501953,-1.439453 z"
     id="path254"
     inkscape:connector-curvature="0" />
</svg>
